X: 105
M:4/4
L:1/8
K:G
(3def|g2 "tr"gf g2 d2|edBc dBGB|A2 AG A2 B2|DEGA BG G2|
gfaf g2 d2|edBc dBGB|A2 AG A2 D2|(3EFG AF G2||

